X:1
T:Per illud ave prolatum
T:Ivo de Vento
T:Source : Liber mottetorum 4 vocum---Monacii---A.Berg---1571. Editor : André Vierendeels (10/11/16).
T:Per illud ave prolatum
T:secunda pars
T:©
T:©
T:©
T:©
T:©
T:©
C:Ivo de Vento
Z:©
%%score [ 1 2 3 4 ]
L:1/8
Q:1/4=121
M:4/4
K:C
V:1 treble nm="Soprano" snm="S"
V:2 treble nm="Alto" snm="A"
V:3 treble-8 nm="Tenor" snm="T"
V:4 bass nm="Bass" snm="B"
V:1
 z4 A4 | c2 c2 c4 | B2 G2 A4 | A2 A2 c2 c2 | c4 B2 G2 | A4 B2 G2 | A2 B2 c2 d2 | c2 BA G2 G2- | %8
w: Per|il- lud a-|ve pro- la-|tum, per il- lud|a- ve pro-|la- tum et|tu- um res- pon-|sum _ _ _ da-|
 GABG c4 | B2 G2 A2 B2 | c2 B2 A4 | z8 | z2 A2 B2 B2 | c2 d2 c2 BA | G2 G3 A BG | c4 B4 | B4 c3 B | %17
w: |tum, et tu- um|res- on- sum,||et tu- um|res- pon- sum _ _|_ da- * * *|tum, ex|te _ _|
 A2 G2 d4 | G4 A4- | A2 F2 F2 F2 | f2 e3 d d2- | dc/B/ c2 d4 | A3 A B2 c2 | B2 AG A2 A2 | %24
w: _ ver- bum,|ex te|_ ver- bum in-|car- na- * *|* * * * tum,|quo sal- van- tur|o- * * * mni-|
 B2 B3 B d2 | c2 d4 c2 | d4 A3 A | B2 c2 B2 G2 | A2 A2 _B2 A2 | G2 A3 G G2- | %30
w: a, quo sal- van-|tut o- mni-|a, quo sal-|van- tur o- mni-|a, quo sal- van-|tur o- * *|
"^#""^b" G2 F2 G2 B2- |"^b" BB d2 c2 d2- |"^#" d2 c2 d2 A2 | A2 B2 c4- | c2 B2 G2 A2- | %35
w: * mni- a, quo|_ sal- van- tur o-|* mni- a, nunc|ma- ter ex-|* o- ra na-|
 AG G3 F/E/ F2 | G4 z4 | z4 z2 A2 | A2 B2 c4- | c2 B2 G2 A2- | AG G3 F/E/ F2 | G4 z4 | z4 z2 A2 | %43
w: |tum,|ut|no- strum tol-|* lat re- a-||tum,|et|
 B4 G2 G2 | c4 B2 G2 | A4 B4 | z8 | z8 | z4 z2 d2 | e4 c2 c2 | f3 e dc d2 | e2 c2 B3 A/G/ | A4 B4 | %53
w: re- gnum det|no- bis pa-|ra- tum,|||et|re- gnum det|no- * * * *|bis pa- ra- * *|* tum,|
 z8 | z4 z2 d2- | d2 e2 d2 c2 | BA d4 cB | A2 G2 A4 | z2 A4 _B2 | A2 G2 A3 A | B2 B4 c2 | %61
w: |in|_ coe- le- sti|pa- * * * *|* tri- a,|in coe-|le- sti pa- tri-|a, in coe-|
 B2 A2 G3 G | G2 G4 A2- | A2 G4 F2 | G2 G2 G4 | G8 | G8 |] %67
w: le- sti pa- tri-|a, in coe-|* le- sti|pa- tri- a,|a-|men.|
V:2
 D4 F2 F2 | F4 E2 DC | D2 E2 F3 E | DEFG A3 G/F/ | GE A3 G G2- | GF/E/ F2 G3 F/E/ | D4 z4 | z8 | %8
w: Per il- lud|a- * * *|ve pro- la- *||||tum,||
 z4 z2 C2 | D2 E2 F2 G2 | C2 G3 F/E/ F2 | GF FE/D/ E2 E2 | F2 F2 G4 | E2 D2 F4 | E4 z4 | %15
w: et|tu- um res- pon-|sum da- * * *|* * * * * tum, et|tu- um res-|pon- sum da-|tum,|
 z4 z2 D2- | D2 E4 C2 | C2 E2 F2 G2- | GFED CD E2 | A,4 A4- | A2 E2 G4 | A4 F3 F | F2 A2 GE A2- | %23
w: ex|_ te ver-|bum in- car- na-||tum in-|* car- na-|tum, quo sal-|van- tur o- * *|
 AG G4 F2 | G4 z4 | z4 z2 E2 | F2 F3 G A2 | G2 A3 G G2- | G2 F2 D4 | E3 E D2 C2 | D3 D D4 | z8 | %32
w: * * * mni-|a,|quo|sal- van- * *|tur o- * *|* mni- a,|quo sal- van- tur|o- mni- a,||
 z4 F4 | F2 G2 A4 | F2 D2 E4 | D2 E2 E2 DC | B,2 G,2 A,2 B,2 | z2 E2 F4- | F2 G2 A4 | F2 D2 E4 | %40
w: nunc|mater ex- o-|* ra na-|tum, ex- o- * *|* ra na- tum,|ut no-|* strum tol|lat re- a-|
 D2 E2 E2 DC | B,2 G,2 A,2 B,2 | z2 E2 F4 | D2 D2 E4 | C2 E2 ED G2- | GF/E/ F2 G4 | z8 | z8 | z8 | %49
w: tum, tol- lat _ _|_ re- a- tum|et re-|gnum det no-|bis pa- ra- * *|* * * * tum,||||
 z2 G2 A4 | F2 A2 B2 B2 | c2 A3 G G2- | GF/E/ F2 G4 | z4 z2 D2- | D2 E2 D2 D2 | G3 E FGAE | %56
w: et re-|gnum det no- bis|pa- ra- * *|* * * * tum,|in|_ coe- le- sti|pa- * * * * *|
 F2 _B2 A4 | z2 D2 E2 F2 | E3 D/E/ F2 D2- | D2 E2 D2 D2- | D2 E2 D2 C2 | D3 C B,2 C2 | %62
w: * tri- a,|in coe- le-|sti _ _ _ pa-|* tri- a, in|_ coe- le- sti|pa- * * tri-|
 B,2 D2 E2 F2- | F2 E2 E2 D2 | D3 C B,4 | C3 D E4 | D8 |] %67
w: a, in coe- le-|* sti pa- tri-|a, _ _|a- * *|men.|
V:3
 z8 | z8 | z4 z2 d2 | f2 f2 f4 | e2 c2 e4 | d4 G4 | z2 G2 A2 B2 | c2 d2 e2 ed | ef g3 f/e/ f2 | %9
w: ||Per|il- lud a-|ve pro- la-|* tum,|et tu- um|res- pon- sum da- *||
 g4 z4 | A2 B2 c2 d2 | G2 d3 c/B/ c2 | d4 z2 G2 | A2 B2 c2 d2 | e2 cd ef g2- | gf/e/ f2 g4- | %16
w: tum|tu- um res- pon-|sum da- * * *|tum, et|tu- um res- pon-|sum da- * * * *|* * * * tum,|
 g4 z4 | z4 d4 | e6 c2 | c4 z2 f2 | d2 g3 f ed | e4 d2 d2- | d2 f2 e2 c2 | d2 e2 d2 d2- | %24
w: _|ex|te ver-|bum in-|car- na- * * *|* tum, quo|_ sal- van- tur|o- mni- a, quo|
 d2 e2 d2 d2 | f3 f e4 | z2 d4 f2 | e2 c2 d2 e2 | d4 z2 A2 | c4 B2 G2 | A3 A G4 | d3 d e2 f2 | %32
w: _ sal- van- tur|o- mni- a,|quo sal-|van- tut o- mni-|a, quo|sal- van- tur|o- mni- a,|quo sal- van- tur|
 e3 e d4 | z4 z2 A2 | A2 B2 c4 | B2 AG A4 | G2 c3 A d2- | dc/B/ c2 d4 | z4 z2 A2 | A2 B2 c4 | %40
w: o- mni- a,|nunc|ma- ter ex-|o- * * *|ra na- * *|* * * * tum,|ut|no- strum tol-|
 B2 AG A4 | G2 c3 A d2- | dc/B/ c2 d4 | z8 | z8 | z2 d4 e2- | e2 c4 A2 | d2 f2 e2 d2- | %48
w: lat _ _ _|re- a- * *|* * * * tum,|||et re-|* gnum det|no- bis pa- ra-|
 dc c3 B/A/ B2 | c2 c2 f4 | d2 d2 g4 | e2 f2 g4 | d2 d4 e2 | d2 c2 B2 A2 | B2 c4 BA | B2 c2 d2 A2 | %56
w: |tum, et re-|gnum det no-|bis pa- ra-|tm, in coe-|le- sti pa- tri-|a, in _ _|_ coe- le- sti|
 d3 e f2 e2 | f2 d2 c2 d2- | d2 c2 d3 e | fd g4 f2 | g4 z4 | z2 d4 e2 | dcBA B2 c2 | B3 B A4 | %64
w: pa- * * tri-|a, in coe- le-|* sti pa- *|* * * tri-|a,|in coe-|le- * * * * sti|pa- tr- a,|
 B3 c d2 e2 | e3 d c4 | B8 |] %67
w: a- * * men,|a- * *|men.|
V:4
 z8 | z8 | z8 | z8 | z8 | z8 | z4 z2 G,2 | A,2 B,2 C4 | C2 B,2 A,4 | G,4 z4 | z4 z2 D,2 | %11
w: ||||||Et|tu- um res-|pon- sum da-|tum,|et|
 E,2 F,2 G,2 A,2 | D,4 z4 | z2 G,2 A,2 B,2 | C4 C2 B,2 | A,4 G,4 | G,4 A,2 A,2- | %17
w: tu- um res- pon-|sum,|et tu- um|res- pon- sum|da- tum,|ex te ver-|
 A,B, C3 B,/A,/ B,2 | C4 A,4 | F,2 F,2 D,2 D2- | D2 C2 _B,4 | A,4 D,4- | D,4 z4 | z8 | G,6 _B,2 | %25
w: |bum, ex|te ver- bum in-|* car- na-|* tum,|_||quo sal-|
 A,2 F,2 G,2 A,2 | D,8 | z8 | D,6 F,2 | E,2 C,2 D,2 E,2 | D,4 z2 G,2- | G,2 _B,2 A,2 F,2 | %32
w: van- tur o- mni-|a,||quo sal-|van- tur o- mni-|a, quo|_ sal- van- tur|
 G,2 A,2 D,4 | z8 | z8 | z2 C,2 C,2 D,2 | E,4 F,2 G,2 | E,4 D,4 | z8 | z8 | z2 C,2 C,2 D,2 | %41
w: o- mni- a,|||nunc ma- ter|ex- o- ra|na- tum,|||ut no- strum|
 E,4 F,2 G,2 | E,4 D,4 | G,4 z4 | z8 | z4 G,4 | A,4 F,4 | D,4 G,4 | E,2 F,2 D,4 | C,4 z4 | z8 | %51
w: tol- lat te-|a- *|tum,||et|re- gnum|det no-|bis pa- ra-|tum,||
 z8 | z4 G,4- | G,2 A,2 G,2 F,2 | G,2 C,2 G,4 | z8 | z4 A,4- | A,2 _B,2 A,2 F,2 | G,2 A,2 D,4 | %59
w: |in|_ coe- le- sti|pa- tri- a,||in|_ coe- le- sti|pa- tri- a,|
 z8 | G,6 A,2 | G,2 F,2 G,2 C,2 | G,2 G,4 F,2 | D,2 E,2 C,2 D,2 | G,2 G,3 F, E,D, | C,8 | G,8 |] %67
w: |in coe-|le- sti pa- tri-|a, in coe-|le- sti pa- tri-|a, a- * * *||men.|

